icons/cmake.svg

<svg width="16" height="16" viewBox="0 0 16 16" fill="none" xmlns="http://www.w3.org/2000/svg">
<path d="M6.20823 11.0866C6.28687 11.0322 6.38675 11.0185 6.47713 11.0498L13.3143 13.4165C13.6341 13.5272 13.5546 14 13.2162 14H2.96038C2.66627 14 2.5478 13.6208 2.78962 13.4533L6.20823 11.0866Z" fill="#71D168"/>
<path d="M9.74878 10.7109C9.65564 10.6695 9.58989 10.5836 9.5742 10.4829L8.36774 2.73768C8.31578 2.40416 8.76893 2.25224 8.92851 2.54967L14.0076 12.016C14.1427 12.2678 13.8825 12.5481 13.6214 12.432L9.74878 10.7109Z" fill="#ED6161"/>
<path d="M7.97702 7.80103C7.98632 7.90336 7.94261 8.00333 7.86117 8.06598L2.2119 12.4116C1.95214 12.6114 1.60591 12.3095 1.76851 12.025L6.98322 2.89921C7.12881 2.64442 7.51589 2.72864 7.54246 3.02089L7.97702 7.80103Z" fill="#6895D8"/>
</svg>

<svg xmlns="http://www.w3.org/2000/svg" width="16" height="16" fill="none"><path fill="#71D168" d="M6.208 11.087a.3.3 0 0 1 .27-.037l6.836 2.366c.32.111.24.584-.098.584H2.96a.3.3 0 0 1-.17-.547l3.418-2.366Z"/><path fill="#ED6161" d="M9.749 10.71a.3.3 0 0 1-.175-.227L8.368 2.738c-.052-.334.4-.486.56-.188l5.08 9.466a.3.3 0 0 1-.387.416L9.75 10.711Z"/><path fill="#6895D8" d="M7.977 7.801a.3.3 0 0 1-.116.265l-5.65 4.346c-.259.2-.605-.103-.442-.387l5.214-9.126a.3.3 0 0 1 .56.122l.434 4.78Z"/></svg>
